symbols/web/kitesurfing/materialsymbolssharp/kitesurfing_wght100gradN25_40px.svg

<svg xmlns="http://www.w3.org/2000/svg" height="40" width="40"><path d="M13.333 7.583q-1.083 0-1.833-.75T10.75 5q0-1.083.75-1.833t1.833-.75q1.084 0 1.834.75T15.917 5q0 1.083-.75 1.833t-1.834.75ZM27.417 7.5l-.792-.792L31 2.333h1.583ZM4.458 37.208v-.958H5q1.292 0 2.562-.417 1.271-.416 2.438-1.208 1.083.75 2.458 1.208 1.375.459 2.625.459 1.292.041 2.521-.417 1.229-.458 2.396-1.25 1.167.792 2.438 1.229 1.27.438 2.562.438 1.333 0 2.562-.438 1.23-.437 2.438-1.229 1.208.792 2.458 1.208 1.25.417 2.542.417h.583v.958H35q-1.167 0-2.417-.333-1.25-.333-2.583-1.125-1.333.792-2.583 1.125-1.25.333-2.417.333-1.167 0-2.417-.333-1.25-.333-2.583-1.125-1.292.833-2.562 1.167-1.271.333-2.355.291-1.125 0-2.479-.354T10 35.75q-1.333.792-2.583 1.125-1.25.333-2.417.333ZM15 32q-1.125 0-2.104-.292-.979-.291-1.563-.666.417-.292 1.688-1.25 1.271-.959 1.812-1.334l-3.625-7.083v-8.042q0-.916.625-1.541.625-.625 1.5-.625h5q1.709 0 3.167-.5 1.458-.5 2.708-1.459l.667.667q-1.375 1.083-3.021 1.667-1.646.583-3.521.583h-3.5v8.208h5.292l3.083 3.375q2.667-1.166 4.938-1.854 2.271-.687 3.771-.687.625 0 1.271.208.645.208.645.75 0 1.625-2.958 4.417-2.958 2.791-7.333 5.458.083-.083.166-.083h.167q-.958-.125-1.937-.563-.98-.437-1.938-1.396-1.167 1.167-2.458 1.604Q16.25 32 15 32Zm.833-4.292q1.209-.708 3.25-1.875 2.042-1.166 3.167-1.666l-2.583-2.875-6.334.791Z"/></svg>

<svg xmlns="http://www.w3.org/2000/svg" height="40" width="40"><path d="M13.333 7.583Q12.25 7.583 11.5 6.833Q10.75 6.083 10.75 5Q10.75 3.917 11.5 3.167Q12.25 2.417 13.333 2.417Q14.417 2.417 15.167 3.167Q15.917 3.917 15.917 5Q15.917 6.083 15.167 6.833Q14.417 7.583 13.333 7.583ZM27.417 7.5 26.625 6.708 31 2.333H32.583ZM4.458 37.208V36.25H5Q6.292 36.25 7.562 35.833Q8.833 35.417 10 34.625Q11.083 35.375 12.458 35.833Q13.833 36.292 15.083 36.292Q16.375 36.333 17.604 35.875Q18.833 35.417 20 34.625Q21.167 35.417 22.438 35.854Q23.708 36.292 25 36.292Q26.333 36.292 27.562 35.854Q28.792 35.417 30 34.625Q31.208 35.417 32.458 35.833Q33.708 36.25 35 36.25H35.583V37.208H35Q33.833 37.208 32.583 36.875Q31.333 36.542 30 35.75Q28.667 36.542 27.417 36.875Q26.167 37.208 25 37.208Q23.833 37.208 22.583 36.875Q21.333 36.542 20 35.75Q18.708 36.583 17.438 36.917Q16.167 37.25 15.083 37.208Q13.958 37.208 12.604 36.854Q11.25 36.5 10 35.75Q8.667 36.542 7.417 36.875Q6.167 37.208 5 37.208ZM15 32Q13.875 32 12.896 31.708Q11.917 31.417 11.333 31.042Q11.75 30.75 13.021 29.792Q14.292 28.833 14.833 28.458L11.208 21.375V13.333Q11.208 12.417 11.833 11.792Q12.458 11.167 13.333 11.167H18.333Q20.042 11.167 21.5 10.667Q22.958 10.167 24.208 9.208L24.875 9.875Q23.5 10.958 21.854 11.542Q20.208 12.125 18.333 12.125H14.833V20.333H20.125L23.208 23.708Q25.875 22.542 28.146 21.854Q30.417 21.167 31.917 21.167Q32.542 21.167 33.188 21.375Q33.833 21.583 33.833 22.125Q33.833 23.75 30.875 26.542Q27.917 29.333 23.542 32Q23.625 31.917 23.708 31.917Q23.792 31.917 23.875 31.917Q22.917 31.792 21.938 31.354Q20.958 30.917 20 29.958Q18.833 31.125 17.542 31.562Q16.25 32 15 32ZM15.833 27.708Q17.042 27 19.083 25.833Q21.125 24.667 22.25 24.167L19.667 21.292L13.333 22.083Z"/></svg>
